X:1
T:St. Werburgh, 64.64.664
T:St. Werburgh, 64.64.664
T:Robert Prescott Stewart, 1868
T:Public Domain Courtesy of the Cyber Hymnal™
C:Robert Prescott Stewart, 1868
Z:Public Domain
Z:Courtesy of the Cyber Hymnal™
%%score ( 1 2 ) 3
L:1/8
Q:1/4=107
M:3/4
K:Eb
V:1 treble 
V:2 treble 
V:3 bass 
V:1
 [B,E]2 [EG]2 [EB]2 | [EA]3 [CG] [CF]2 | [B,E]2 [B,F]2 [B,D]2 | [B,E]6 | [CE]2 [EG]2 [Gc]2 | %5
 [GB]3 [^F=A] G2 | [E=A]2 [DG]2 [D^F]2 | [DG]6 | [DB]2 [Ec]2 [Fd]2 | [Ee]3 [EG] [EG]2 | %10
 [EG]2 [EA]2 [EB]2 | [Ec]3 [EF] [EF]2 | [DF]2 [EG]2 [FA]2 | [EG]6 |] %14
V:2
 x6 | x6 | x6 | x6 | x6 | x4 G2 | x6 | x6 | x6 | x6 | x6 | x6 | x6 | x6 |] %14
V:3
 [E,G,]2 [E,B,]2 [E,_D]2 | [A,,C]3 [A,,B,] [A,,A,]2 | [B,,G,]2 [B,,A,]2 [B,,F,]2 | [E,G,]6 | %4
 [C,G,]2 [C,C]2 [C,E]2 | [D,D]3 [D,C] [E,B,]2 | [C,C]2 [D,B,]2 [D,=A,]2 | [G,B,]6 | %8
 [F,A,]2 [F,A,]2 [B,,A,]2 | [C,G,]3 [C,C] [C,C]2 | [_D,B,]2 [C,A,]2 [B,,G,]2 | %11
 [A,,F,]3 [A,,C] [=A,,C]2 | [B,,B,]2 [B,,B,]2 [B,,D]2 | [E,B,]6 |] %14

